docs/assets/img/icon/group.svg

<svg xmlns="http://www.w3.org/2000/svg" xmlns:xlink="http://www.w3.org/1999/xlink" viewBox="0 0 32 32" version="1.1">
<g id="surface1">
<path style=" " d="M 16 4 C 13.800781 4 12 5.800781 12 8 C 12 9.035156 12.410156 9.972656 13.0625 10.6875 C 12.65625 10.886719 12.296875 11.132813 11.9375 11.40625 C 11.648438 9.484375 9.996094 8 8 8 C 5.800781 8 4 9.800781 4 12 C 4 13.066406 4.433594 14.03125 5.125 14.75 C 4.867188 14.890625 4.609375 15.042969 4.375 15.21875 C 2.933594 16.3125 2 18.054688 2 20 L 4 20 C 4 18.691406 4.628906 17.542969 5.59375 16.8125 C 6.265625 16.304688 7.089844 16 8 16 C 8.621094 16 9.203125 16.167969 9.75 16.4375 L 10.84375 16.96875 L 11.15625 15.78125 C 11.703125 13.617188 13.652344 12 16 12 C 18.34375 12 20.292969 13.589844 20.84375 15.75 L 21.15625 16.96875 L 22.25 16.40625 C 22.789063 16.140625 23.375 16 24 16 C 26.21875 16 28 17.78125 28 20 L 30 20 C 30 17.746094 28.726563 15.773438 26.875 14.75 C 27.566406 14.03125 28 13.066406 28 12 C 28 9.800781 26.199219 8 24 8 C 22.003906 8 20.351563 9.484375 20.0625 11.40625 C 19.703125 11.132813 19.34375 10.886719 18.9375 10.6875 C 19.589844 9.972656 20 9.035156 20 8 C 20 5.800781 18.199219 4 16 4 Z M 16 6 C 17.117188 6 18 6.882813 18 8 C 18 9.117188 17.117188 10 16 10 C 14.882813 10 14 9.117188 14 8 C 14 6.882813 14.882813 6 16 6 Z M 8 10 C 9.117188 10 10 10.882813 10 12 C 10 13.117188 9.117188 14 8 14 C 6.882813 14 6 13.117188 6 12 C 6 10.882813 6.882813 10 8 10 Z M 24 10 C 25.117188 10 26 10.882813 26 12 C 26 13.117188 25.117188 14 24 14 C 22.882813 14 22 13.117188 22 12 C 22 10.882813 22.882813 10 24 10 Z M 16 16 C 13.800781 16 12 17.800781 12 20 C 12 21.066406 12.433594 22.03125 13.125 22.75 C 11.273438 23.773438 10 25.746094 10 28 L 12 28 C 12 25.78125 13.78125 24 16 24 C 18.21875 24 20 25.78125 20 28 L 22 28 C 22 25.746094 20.726563 23.773438 18.875 22.75 C 19.566406 22.03125 20 21.066406 20 20 C 20 17.800781 18.199219 16 16 16 Z M 16 18 C 17.117188 18 18 18.882813 18 20 C 18 21.117188 17.117188 22 16 22 C 14.882813 22 14 21.117188 14 20 C 14 18.882813 14.882813 18 16 18 Z "></path>
</g>
</svg>

<svg xmlns="http://www.w3.org/2000/svg" viewBox="0 0 32 32"><path d="M16 4c-2.2 0-4 1.8-4 4 0 1.035.41 1.973 1.063 2.688-.407.199-.766.445-1.126.718C11.649 9.484 9.998 8 8 8c-2.2 0-4 1.8-4 4 0 1.066.434 2.031 1.125 2.75-.258.14-.516.293-.75.469A6.001 6.001 0 0 0 2 20h2c0-1.309.629-2.457 1.594-3.188A3.96 3.96 0 0 1 8 16c.621 0 1.203.168 1.75.438l1.094.53.312-1.187C11.703 13.617 13.652 12 16 12a4.984 4.984 0 0 1 4.844 3.75l.312 1.219 1.094-.563A3.92 3.92 0 0 1 24 16c2.219 0 4 1.781 4 4h2c0-2.254-1.273-4.227-3.125-5.25A3.958 3.958 0 0 0 28 12c0-2.2-1.8-4-4-4-1.996 0-3.648 1.484-3.938 3.406a6.784 6.784 0 0 0-1.125-.719A3.978 3.978 0 0 0 20 8c0-2.2-1.8-4-4-4zm0 2c1.117 0 2 .883 2 2s-.883 2-2 2-2-.883-2-2 .883-2 2-2zm-8 4c1.117 0 2 .883 2 2s-.883 2-2 2-2-.883-2-2 .883-2 2-2zm16 0c1.117 0 2 .883 2 2s-.883 2-2 2-2-.883-2-2 .883-2 2-2zm-8 6c-2.2 0-4 1.8-4 4 0 1.066.434 2.031 1.125 2.75C11.273 23.773 10 25.746 10 28h2c0-2.219 1.781-4 4-4 2.219 0 4 1.781 4 4h2c0-2.254-1.273-4.227-3.125-5.25A3.958 3.958 0 0 0 20 20c0-2.2-1.8-4-4-4zm0 2c1.117 0 2 .883 2 2s-.883 2-2 2-2-.883-2-2 .883-2 2-2z"/></svg>
